X:1
T:Title
%%score { 1 | ( 2 3 ) }
L:1/8
M:4/4
K:C
V:1 treble nm="Grand Piano"
V:2 bass 
V:3 bass 
V:1
 z4 z2[Q:1/4=100] G>G | c2 E>A G2 C>E | [G,B,D]4 [E,C]2[K:treble] C>E | G2 E>G c2 [Ge]>[Ge] | %4
 d6 d>e | f2 [DFA]>[DFB] [Ec]2 E>E | [CEA]2 c2 B2 B>B | c2 [Af]>[Af] [Ge]2 [B,Fd]2 | [CEc]6 z2 | %9
 G2 G>G G G3 | [DB][Ec][Fd][Ge] [Fd] [Ec]3 | c2 c>c [Ac]>[^GB] [Ac]>[Bd] | %12
 [ce]3 [Bd]/[Ac]/ [^GB]2 [GB][Ac] | d2 c>B c2 [GB][FA] | [FA]2 [EG]>E [EG]2 [EG]>[EG] | %15
 [FA]2 [Af]>[Af] [Ge]2 [Fd]2 |[M:3/4] [Ec]6 |] %17
V:2
 z4 z2 G,>G, | C2 E,>A, G,2 C,>E, | z2 z F, C,2 C,>E, | G,2 E,>G, C2 [C,C]>[C,C] | %4
 [G,B,G]6 [G,B,G]>[G,CG] | [G,DG]2[K:bass] G,,>G,, [C,G,]2 E,>E, | %6
 A,,2 [A,E]2 [E,^G,E]2 [E,G,E]>[E,G,E] | [A,E]2 [F,C]>[F,C] [G,C]2 G,,2 | C,6 z2 | %9
 G,2 G,>G, G, G,3 | [G,,G,]2 [G,,G,][G,,G,] [C,G,] [C,G,]3 | %11
 [A,E]2 [A,E]>[A,E] [F,C]2 [F,C]>[F,C] | [E,C]4 [E,E]2 [E,E][E,E] | %13
 [E,A,E]2 [E,A,E]>[E,G,E] [A,E]2 [F,C][F,C] | [C,C]2 [C,C]>[C,C] [C,C]2 [C,C]>[C,C] | %15
 [F,C]2 [F,C]>[F,C] [G,C]2 [G,,B,]2 |[M:3/4] [C,C]6 |] %17
V:3
 x8 | x8 | G,,4 z4 | x8 | x8 | x2[K:bass] x6 | x8 | x8 | x8 | x8 | x8 | x8 | x8 | x8 | x8 | x8 | %16
[M:3/4] x6 |] %17

